X:163
T:Rose THO4.163, La
M:2/4
L:1/8
Z:vmp. Peter Dunk 2010/11.from a transcription by Fynn Titford-Mock 2007
B:Thompson's Compleat Collection of 200 Favourite Country Dances Volume IV.
Q:1/4=130
K:Bb
B/A/B/c/ Bd|c>ded|cBAB|(c/B/A/G/) FE|DBAB|c>ded|cBFA|B2B,2:|
|:(3FDB, (3GEC|(3FDB, (3GEC|GBAB|(c/B/A/G/) FE|\
DBEc|FdGe|dc/B/ FA| B2B,2:|
|:gE/F/ GE|fD/E/ FD|Cc/d/ (e/d/c/B/)|\
(A/B/c/A/) FE|Df/g/ fD|EgCe|dc/B/ FA| B2B,2:|
